X:1
T:Missa de Beata VirgineL Kyrie
T:Missa de Beata VirgineL Kyrie
T:Josquin des Prez 
T:Copyright © 2017
T:Copyright © 2017
T:Copyright © 2017
T:Copyright © 2017
T:Copyright © 2017
T:Copyright © 2017
T:Copyright © 2017
T:Copyright © 2017
T:Copyright © 2017
T:Copyright © 2017
C:Josquin des Prez
Z:Copyright © 2017
%%score [ 1 2 3 4 ]
L:1/8
M:2/2
K:F
V:1 treble nm="P1" snm="S."
V:2 treble nm="CONTRATENOR" snm="A."
V:3 treble-8 transpose=-12 nm="TENOR" snm="T."
V:4 bass nm="BASSUS" snm="B."
V:1
 G4 B4 | c4 d4 | c2 B2 A4 | G2 B4 A2 | G4 F4 | z2 G4 F2 | G2 d4 c2 | B4 A2 f2 | ed d4 c2 | %9
w: Ky *|||* * ri|e _|Ky *||ri e Ky||
 f3 e dc c2- | c2 B2 c4 | d4 e4 | f6 e2 | d4 c4 | B2 G2 d4- | d2 c2 A2 B2 | G2 B2 A2 B2- | %17
w: |||||ri e e||* * * le|
 BA G3 FFE | G4 d4- | d2 c2 A2 B2 | G2 B2 A2 B2- | BA G3 FFE | G8- | G8 || z8 | z8 | z8 | z8 | z8 | %29
w: * * * * * i|son e||* * * le|* * * * * i|son|_||||||
 z8 | z8 | z8 | z8 | z8 | z8 | z8 | z8 | z8 | z8 | z4 A4- | A4 A4 | G4 B4- | B2 A2 A4- | A4 A4 | %44
w: ||||||||||Chri|_ ste|_ _|* * Chri|_ ste|
 G4 B4- | B2 A2 A4 | G4 B4 | A4 G4- | G4 F4 | G4 A4 | B8 | A4 F4 | G4 A4 | B8 | A8 | z8 | z8 | %57
w: _ _|* * Chri|ste _|_ _|* e|le _|_|* i|son _|_||||
 z4 A4 | G2 _E2 G4 | F8- | F8 || z8 | z8 | z8 | d8 | f4 g4 | g4 f4 | g4 d4 | z8 | z8 | z8 | z4 d4 | %72
w: e|le _ i|son|_||||||||||||
 e2 g4 f2- | f2 ed c4 | B3 c de f2 | e2 d4 c2 | d8 | z8 | z8 | z2 d2 d2 f2- | fedc e2 d2- | %81
w: |||||||||
 d2 cB A4 | z8 | z8 | z8 | z2 G2 B3 A | G2 F2 E4 | D4 z2 A2 | Bcde f2 e2- | ed d4 c2 | d8 | z8 | %92
w: |||||||||||
 z8 | z4 z2 B2- | B2 A2 G4 | F4 z4 | z2 G2 A2 FG | AB c4 B2 | c4 z4 | z2 A2 B2 GA | Bc d4 c2 | %101
w: ||||Ky * * *|* * * ri|e|Ky ri e _|_ _ _ e|
 d3 c B2 A2 | d2 c2 B2 A2- | AG G4 F2 | d3 c B2 A2 | d2 c2 B2 A2- | AG G4 F2 | G8 | z8 | z8 | z8 | %111
w: le * * *||* i son e|le * * *||* * * i|son||||
 z8 |] %112
w: |
V:2
 z8 | z8 | z8 | z8 | z8 | z8 | D4 F4 | G4 A4 | G2 F2 E4 | D2 F4 E2 | D4 C4 | z2 D4 C2 | D2 E2 F4- | %13
w: ||||||Ky *|||* * ri|e *|e *||
 F2 ED E2 F2 | G6 F2 | D2 E2 F2 D2 | E2 (3:2:2F4 E2 D2- | DCCB, D4 | z2 G4 F2 | D2 E2 F2 D2 | %20
w: |||* * * le|* * i * son|e *||
 E2 F3 E D2- | DCCB, D4- | D8- | D8 || z8 | z8 | z8 | z8 | z8 | z8 | z8 | z8 | z8 | z8 | z8 | z8 | %36
w: * * * le|* * * i son|_||||||||||||||
 z8 | z8 | z8 | D8 | D4 C4 | _E6 D2 | D8- | D4 C4 | _E6 D2 | D4 C4 | _E4 D3 C | D2 C4 B,2 | C4 D4 | %49
w: |||Chri|ste _|_ _|Chri|_ ste|_ _|Chri ste|_ _ _||* Chri|
 _E4 D4- | D4 B,4 | C4 D4 | _E6 D2 | D4 B,4 | C4 D4 | _E8 | z4 D4 | _E4 D4- | D2 CB, C4 | D8- | %60
w: _ _|* ste||le _|i _|son _|_|e|le i|_ _ _ _|son|
 D8 || D8 | F4 G4 | G4 F4 | G4 D4 | z8 | z4 D4 | E2 G4 F2- | F2 ED C4 | B,3 C DE F2 | ED D4 C2 | %71
w: _|Ky|_ _|ri _|e _||e|le _ _|_ _ _ _||* * * i|
 D8 | z8 | z8 | z8 | z8 | z2 D2 D2 F2- | FEDC E2 D2- | D2 CB, A,4 | G,4 z4 | z8 | z8 | z8 | z4 G4 | %84
w: son|||||Ky ri e|_ _ _ _ _ le|_ _ _ i|son||||ky|
 (3:2:2B4 A2 G2 F2 | E4 D4 | z8 | z4 A4 | G4 F2 G2 | GFED E4 | D8 | z8 | z4 A4 | %93
w: |||e|le * *|* * * * i|son||Ky|
 (3:2:2B4 A2 GF G2- | GF F4 E2 | F4 z4 | z4 z2 F2- | F2 E2 D4 | C4 z4 | z4 z2 G2- | G2 F2 E4 | %101
w: |* * * ri|e|Ky|_ _ ri|e|Ky|_ ri e|
 D4 G,2 A,2 | B,2 C2 D2 A,2 | C4 D4 | B,3 G, G,2 A,2 | B,2 C2 D2 A,2 | C4 D4 | D8 | z8 | z8 | z8 | %111
w: e * *|||||lei _|son||||
 D8 |] %112
w: |
V:3
 z8 | z8 | z8 | G4 B4 | c4 d4 | c2 B2 A4 | G2 B4 A2 | G4 F4 | c2 d2 A4 | z4 A4 | B4 A2 c2 | %11
w: |||Ky *|||* * ri|e _|Ky ri e|e||
 B2 A4 G2 | B2 A2 d4 | B4 c4 | d4 z2 d2 | B2 c2 d4 | z2 d3 cBA | G4 A4 | G4 z2 d2 | B2 c2 d4 | %20
w: |* * le|i _|son e|le i son|e * * *|lei _|son e|le i son|
 z2 d3 cBA | G4 A4 | G8- | G8 || z4 A4- | A4 A4 | G4 B4- | B2 A2 A4- | A4 A4 | G4 B4- | B2 A2 A4 | %31
w: e * * *|lei _|son|_|Chri|_ ste|_ _|* * Chri|_ ste|_ _|* * Chri|
 G4 B4 | A4 G4- | G4 F4 | G4 A4 | B8 | A4 F4 | G6 A2 | B4 A4 | A8 | z8 | z8 | z8 | z8 | z8 | z8 | %46
w: ste _|_ _|* e|le _|_|i _|son _|_ _||||||||
 z8 | z8 | z8 | z8 | z8 | z8 | z8 | G8 | A4 F4 | G4 A4 | B8 | A4 F4 | G6 A2 | B4 A4 | A8 || z8 | %62
w: |||||||e|_ _|||le _|_ _|* i|son||
 z8 | z8 | g4 b4 | a4 g2 b2- | b2 ag a4 | g6 d2 | f2 g2 e4 | d6 c2 | B2 A4 G2 | A2 f4 ed | %72
w: ||Ky _|ri e *||* e|le _ _|_ _|* * i|son Ky ri _|
 c4 B3 c | de f3 g a2 | b2 g2 b2 a2 | g2 f2 e4 | d8 | z8 | z8 | d8 | f4 g4 | g4 f4 | g4 d4 | %83
w: e e *|||le _ i|son|||Ky||ri _|e _|
 z2 d4 c2 | d2 _e4 d2 | c4 B4 | c2 d4 c2 | d8 | z8 | z8 | z4 d4 | c4 B2 c2- | cBAG A4 | G8 | z8 | %95
w: e *|le * *||* * i|son|||e|le * *|* * * * i|son||
 z2 B4 A2 | G4 F4 | z8 | z2 c4 B2 | A4 G4 | z8 | G6 F2 | G2 A2 B2 c2- | cBAG A4 | G6 F2 | %105
w: ky _|ri e||ky _|ri e||Ky *||* * * * ri|e e|
 G2 A2 B2 c2- | cBAG A4 | G8 | z8 | z8 | z8 | z8 |] %112
w: * * * le|_ _ _ _ i|son|||||
V:4
 z8 | z8 | z8 | z8 | z8 | z8 | z8 | z8 | z8 | D,4 F,4 | G,4 A,4 | G,2 F,2 E,4 | D,8 | z4 A,4 | %14
w: |||||||||Ky *||* * ri|e|e|
 G,4 B,4- | B,2 A,2 F,2 G,2- | G,2 D,2 F,2 G,2 | E,4 D,4 | G,4 B,4 | B,2 A,2 F,2 G,2- | %20
w: |||lei _|son e||
 G,2 D,2 F,2 G,2 | E,4 D,4 | z4 G,4 | G,8 || D,8 | D,4 C,4 | _E,6 D,2 | D,8 | D,4 C,4 | _E,6 D,2 | %30
w: |le _|i|son|Chri|ste _|_ _|Chri|ste _|_ _|
 D,4 C,4 | _E,4 D,3 C, | D,2 C,4 B,,2 | C,4 D,4 | _E,4 D,4- | D,4 B,,4 | C,4 D,4 | _E,6 D,2 | %38
w: Chri _|ste _ _|_ _ _||Chri ste|_ e|le _|_ i|
 D,8- | D,8 | z8 | z8 | z8 | z8 | z8 | z8 | z8 | z8 | z8 | z8 | z8 | z8 | z8 | z8 | z8 | z8 | %56
w: son||||||||||||||||||
 B,,8 | C,4 D,4 | _E,8 | D,8- | D,8 || G,4 B,4 | A,4 G,2 B,2- | B,2 A,G, A,4 | G,8 | z8 | z8 | %67
w: e|lei _|_|son||Ky *||* * * ri|e|||
 z2 G,3 A, B,2 | F,2 B,4 A,2 | B,2 G,2 B,2 A,2 | G,2 F,2 E,4 | D,8 | z8 | z8 | z8 | z8 | D,8 | %77
w: e * *|* le *||* * i|son|||||ky|
 F,4 G,4 | G,4 F,4 | G,4 D,4 | z8 | z8 | z2 G,2 (3:2:2B,4 A,2 | G,2 F,2 E,4 | z8 | z8 | z8 | z8 | %88
w: _ _|ri _|e _|||ky ri _|_ _ e|||||
 z8 | z4 A,4 | B,3 A, F,2 G,2 | C,D,E,F, G,2 A,2- | A,G, G,4 F,2 | G,8 | z4 z2 C,2 | %95
w: |Ky|ri * * *|* * * * * le|_ _ _ i|son|Ky|
 D,2 B,,C, D,E, F,2- | F,2 E,2 F,4 | z8 | z2 C,D, E,F, G,2- | G,2 F,2 G,4 | z4 G,4 | B,2 G,2 D3 C | %102
w: _ _ _ _ _ _|* ri e||Ky _ _ _ _|_ ri e|e|le _ _ _|
 B,2 A,2 G,2 F,2 | E,4 D,4 | z2 D2 D3 C | B,2 A,2 G,2 F,2 | E,4 D,4 | G,8 | z8 | z8 | z8 | z8 |] %112
w: _ _ i _|son _|Ky ri _|e e _ _|lei _|son|||||

